assets/1. Persons/Nose/Medium-Light/Color/Nose.Color.Medium-light.svg

<svg width="100%" height="100%" viewBox="0 0 32 32" fill="none" xmlns="http://www.w3.org/2000/svg">
<g filter="url(#filter0_i_20020_4959)">
<path d="M13.0147 6.75611C13.3129 5.42567 14.4939 4.47998 15.8574 4.47998C17.2208 4.47998 18.4019 5.42567 18.7 6.75611L20.6308 15.5269C20.8574 16.3472 21.6482 16.8996 22.4667 16.9565C24.5995 17.105 26.2734 18.7494 26.2734 20.855C26.2734 22.9606 24.5665 24.6675 22.4609 24.6675C22.4073 24.6675 22.3541 24.6664 22.3011 24.6642C21.3317 24.6242 20.2573 24.9181 19.5464 25.5784C18.5788 26.4772 17.2822 27.0269 15.8574 27.0269C14.4325 27.0269 13.1359 26.4772 12.1683 25.5784C11.4575 24.9181 10.383 24.6242 9.41364 24.6642C9.36066 24.6664 9.30737 24.6675 9.25385 24.6675C7.14825 24.6675 5.44135 22.9606 5.44135 20.855C5.44135 18.7494 7.11517 17.105 9.24799 16.9565C10.0665 16.8996 10.8574 16.3472 11.0839 15.5269L13.0147 6.75611Z" fill="url(#paint0_linear_20020_4959)"/>
</g>
<path d="M13.0147 6.75611C13.3129 5.42567 14.4939 4.47998 15.8574 4.47998C17.2208 4.47998 18.4019 5.42567 18.7 6.75611L20.6308 15.5269C20.8574 16.3472 21.6482 16.8996 22.4667 16.9565C24.5995 17.105 26.2734 18.7494 26.2734 20.855C26.2734 22.9606 24.5665 24.6675 22.4609 24.6675C22.4073 24.6675 22.3541 24.6664 22.3011 24.6642C21.3317 24.6242 20.2573 24.9181 19.5464 25.5784C18.5788 26.4772 17.2822 27.0269 15.8574 27.0269C14.4325 27.0269 13.1359 26.4772 12.1683 25.5784C11.4575 24.9181 10.383 24.6242 9.41364 24.6642C9.36066 24.6664 9.30737 24.6675 9.25385 24.6675C7.14825 24.6675 5.44135 22.9606 5.44135 20.855C5.44135 18.7494 7.11517 17.105 9.24799 16.9565C10.0665 16.8996 10.8574 16.3472 11.0839 15.5269L13.0147 6.75611Z" fill="url(#paint1_linear_20020_4959)"/>
<path d="M13.0147 6.75611C13.3129 5.42567 14.4939 4.47998 15.8574 4.47998C17.2208 4.47998 18.4019 5.42567 18.7 6.75611L20.6308 15.5269C20.8574 16.3472 21.6482 16.8996 22.4667 16.9565C24.5995 17.105 26.2734 18.7494 26.2734 20.855C26.2734 22.9606 24.5665 24.6675 22.4609 24.6675C22.4073 24.6675 22.3541 24.6664 22.3011 24.6642C21.3317 24.6242 20.2573 24.9181 19.5464 25.5784C18.5788 26.4772 17.2822 27.0269 15.8574 27.0269C14.4325 27.0269 13.1359 26.4772 12.1683 25.5784C11.4575 24.9181 10.383 24.6242 9.41364 24.6642C9.36066 24.6664 9.30737 24.6675 9.25385 24.6675C7.14825 24.6675 5.44135 22.9606 5.44135 20.855C5.44135 18.7494 7.11517 17.105 9.24799 16.9565C10.0665 16.8996 10.8574 16.3472 11.0839 15.5269L13.0147 6.75611Z" fill="url(#paint2_linear_20020_4959)"/>
<path d="M13.0147 6.75611C13.3129 5.42567 14.4939 4.47998 15.8574 4.47998C17.2208 4.47998 18.4019 5.42567 18.7 6.75611L20.6308 15.5269C20.8574 16.3472 21.6482 16.8996 22.4667 16.9565C24.5995 17.105 26.2734 18.7494 26.2734 20.855C26.2734 22.9606 24.5665 24.6675 22.4609 24.6675C22.4073 24.6675 22.3541 24.6664 22.3011 24.6642C21.3317 24.6242 20.2573 24.9181 19.5464 25.5784C18.5788 26.4772 17.2822 27.0269 15.8574 27.0269C14.4325 27.0269 13.1359 26.4772 12.1683 25.5784C11.4575 24.9181 10.383 24.6242 9.41364 24.6642C9.36066 24.6664 9.30737 24.6675 9.25385 24.6675C7.14825 24.6675 5.44135 22.9606 5.44135 20.855C5.44135 18.7494 7.11517 17.105 9.24799 16.9565C10.0665 16.8996 10.8574 16.3472 11.0839 15.5269L13.0147 6.75611Z" fill="url(#paint3_radial_20020_4959)"/>
<path d="M13.0147 6.75611C13.3129 5.42567 14.4939 4.47998 15.8574 4.47998C17.2208 4.47998 18.4019 5.42567 18.7 6.75611L20.6308 15.5269C20.8574 16.3472 21.6482 16.8996 22.4667 16.9565C24.5995 17.105 26.2734 18.7494 26.2734 20.855C26.2734 22.9606 24.5665 24.6675 22.4609 24.6675C22.4073 24.6675 22.3541 24.6664 22.3011 24.6642C21.3317 24.6242 20.2573 24.9181 19.5464 25.5784C18.5788 26.4772 17.2822 27.0269 15.8574 27.0269C14.4325 27.0269 13.1359 26.4772 12.1683 25.5784C11.4575 24.9181 10.383 24.6242 9.41364 24.6642C9.36066 24.6664 9.30737 24.6675 9.25385 24.6675C7.14825 24.6675 5.44135 22.9606 5.44135 20.855C5.44135 18.7494 7.11517 17.105 9.24799 16.9565C10.0665 16.8996 10.8574 16.3472 11.0839 15.5269L13.0147 6.75611Z" fill="url(#paint4_radial_20020_4959)"/>
<path d="M13.0147 6.75611C13.3129 5.42567 14.4939 4.47998 15.8574 4.47998C17.2208 4.47998 18.4019 5.42567 18.7 6.75611L20.6308 15.5269C20.8574 16.3472 21.6482 16.8996 22.4667 16.9565C24.5995 17.105 26.2734 18.7494 26.2734 20.855C26.2734 22.9606 24.5665 24.6675 22.4609 24.6675C22.4073 24.6675 22.3541 24.6664 22.3011 24.6642C21.3317 24.6242 20.2573 24.9181 19.5464 25.5784C18.5788 26.4772 17.2822 27.0269 15.8574 27.0269C14.4325 27.0269 13.1359 26.4772 12.1683 25.5784C11.4575 24.9181 10.383 24.6242 9.41364 24.6642C9.36066 24.6664 9.30737 24.6675 9.25385 24.6675C7.14825 24.6675 5.44135 22.9606 5.44135 20.855C5.44135 18.7494 7.11517 17.105 9.24799 16.9565C10.0665 16.8996 10.8574 16.3472 11.0839 15.5269L13.0147 6.75611Z" fill="url(#paint5_radial_20020_4959)"/>
<path d="M13.0147 6.75611C13.3129 5.42567 14.4939 4.47998 15.8574 4.47998C17.2208 4.47998 18.4019 5.42567 18.7 6.75611L20.6308 15.5269C20.8574 16.3472 21.6482 16.8996 22.4667 16.9565C24.5995 17.105 26.2734 18.7494 26.2734 20.855C26.2734 22.9606 24.5665 24.6675 22.4609 24.6675C22.4073 24.6675 22.3541 24.6664 22.3011 24.6642C21.3317 24.6242 20.2573 24.9181 19.5464 25.5784C18.5788 26.4772 17.2822 27.0269 15.8574 27.0269C14.4325 27.0269 13.1359 26.4772 12.1683 25.5784C11.4575 24.9181 10.383 24.6242 9.41364 24.6642C9.36066 24.6664 9.30737 24.6675 9.25385 24.6675C7.14825 24.6675 5.44135 22.9606 5.44135 20.855C5.44135 18.7494 7.11517 17.105 9.24799 16.9565C10.0665 16.8996 10.8574 16.3472 11.0839 15.5269L13.0147 6.75611Z" fill="url(#paint6_radial_20020_4959)"/>
<path d="M11.2963 25.0129C10.709 24.7517 10.0395 24.6384 9.4137 24.6642C9.36072 24.6664 9.30743 24.6675 9.25391 24.6675C8.82746 24.6675 8.41736 24.5975 8.03448 24.4683C7.62983 24.3318 7.5138 23.8294 7.8573 23.5757C8.21786 23.3093 8.66378 23.1519 9.14648 23.1519C10.2405 23.1519 11.1455 23.9607 11.2963 25.0129Z" fill="url(#paint7_radial_20020_4959)"/>
<path d="M11.2963 25.0129C10.709 24.7517 10.0395 24.6384 9.4137 24.6642C9.36072 24.6664 9.30743 24.6675 9.25391 24.6675C8.82746 24.6675 8.41736 24.5975 8.03448 24.4683C7.62983 24.3318 7.5138 23.8294 7.8573 23.5757C8.21786 23.3093 8.66378 23.1519 9.14648 23.1519C10.2405 23.1519 11.1455 23.9607 11.2963 25.0129Z" fill="url(#paint8_radial_20020_4959)"/>
<path d="M23.8576 23.5757C24.2011 23.8294 24.0851 24.3318 23.6804 24.4683C23.2975 24.5975 22.8874 24.6675 22.461 24.6675C22.4075 24.6675 22.3542 24.6664 22.3012 24.6642C21.6754 24.6384 21.0059 24.7517 20.4186 25.0129C20.5694 23.9607 21.4744 23.1519 22.5684 23.1519C23.0511 23.1519 23.497 23.3093 23.8576 23.5757Z" fill="url(#paint9_radial_20020_4959)"/>
<path d="M23.8576 23.5757C24.2011 23.8294 24.0851 24.3318 23.6804 24.4683C23.2975 24.5975 22.8874 24.6675 22.461 24.6675C22.4075 24.6675 22.3542 24.6664 22.3012 24.6642C21.6754 24.6384 21.0059 24.7517 20.4186 25.0129C20.5694 23.9607 21.4744 23.1519 22.5684 23.1519C23.0511 23.1519 23.497 23.3093 23.8576 23.5757Z" fill="url(#paint10_radial_20020_4959)"/>
<g filter="url(#filter1_f_20020_4959)">
<path d="M15.5102 19.5223L15.9889 6.91816C16.0091 6.38637 16.5446 6.03086 17.0425 6.21868C17.2931 6.31321 17.4776 6.52983 17.5311 6.79228L20.0475 19.152C20.3368 20.5727 19.251 21.9018 17.8011 21.9018C16.5008 21.9018 15.4609 20.8216 15.5102 19.5223Z" fill="url(#paint11_linear_20020_4959)"/>
</g>
<g filter="url(#filter2_f_20020_4959)">
<path d="M23.2588 21.7456H18.9199C18.5402 21.7456 18.2324 21.4378 18.2324 21.0581C18.2324 20.6784 18.5402 20.3706 18.9199 20.3706H21.7953C22.4399 20.3706 22.9319 19.7944 22.8308 19.1578C22.7243 18.4866 23.2966 17.8732 23.9064 18.1731C24.5679 18.4985 24.9777 19.0166 25.2178 19.5802C25.7162 20.7503 24.5306 21.7456 23.2588 21.7456Z" fill="url(#paint12_linear_20020_4959)"/>
</g>
<g filter="url(#filter3_f_20020_4959)">
<path d="M10.7213 18.6965L10.3796 21.906C10.3173 22.491 9.75329 22.8978 9.25079 22.5918C8.2659 21.9923 7.51265 20.8619 7.7011 19.5893C7.86509 18.4819 8.92748 17.9499 9.84376 17.7712C10.3811 17.6664 10.7793 18.1521 10.7213 18.6965Z" fill="#E8B592"/>
</g>
<defs>
<filter id="filter0_i_20020_4959" x="5.44135" y="4.47998" width="21.082" height="22.7969" filterUnits="userSpaceOnUse" color-interpolation-filters="sRGB">
<feFlood flood-opacity="0" result="BackgroundImageFix"/>
<feBlend mode="normal" in="SourceGraphic" in2="BackgroundImageFix" result="shape"/>
<feColorMatrix in="SourceAlpha" type="matrix" values="0 0 0 0 0 0 0 0 0 0 0 0 0 0 0 0 0 0 127 0" result="hardAlpha"/>
<feOffset dx="0.25" dy="0.25"/>
<feGaussianBlur stdDeviation="1"/>
<feComposite in2="hardAlpha" operator="arithmetic" k2="-1" k3="1"/>
<feColorMatrix type="matrix" values="0 0 0 0 0.776471 0 0 0 0 0.592157 0 0 0 0 0.458824 0 0 0 1 0"/>
<feBlend mode="normal" in2="shape" result="effect1_innerShadow_20020_4959"/>
</filter>
<filter id="filter1_f_20020_4959" x="13.0085" y="3.66791" width="9.58582" height="20.7339" filterUnits="userSpaceOnUse" color-interpolation-filters="sRGB">
<feFlood flood-opacity="0" result="BackgroundImageFix"/>
<feBlend mode="normal" in="SourceGraphic" in2="BackgroundImageFix" result="shape"/>
<feGaussianBlur stdDeviation="1.25" result="effect1_foregroundBlur_20020_4959"/>
</filter>
<filter id="filter2_f_20020_4959" x="16.7324" y="16.5949" width="10.1019" height="6.65067" filterUnits="userSpaceOnUse" color-interpolation-filters="sRGB">
<feFlood flood-opacity="0" result="BackgroundImageFix"/>
<feBlend mode="normal" in="SourceGraphic" in2="BackgroundImageFix" result="shape"/>
<feGaussianBlur stdDeviation="0.75" result="effect1_foregroundBlur_20020_4959"/>
</filter>
<filter id="filter3_f_20020_4959" x="5.67206" y="15.7569" width="7.05487" height="8.93951" filterUnits="userSpaceOnUse" color-interpolation-filters="sRGB">
<feFlood flood-opacity="0" result="BackgroundImageFix"/>
<feBlend mode="normal" in="SourceGraphic" in2="BackgroundImageFix" result="shape"/>
<feGaussianBlur stdDeviation="1" result="effect1_foregroundBlur_20020_4959"/>
</filter>
<linearGradient id="paint0_linear_20020_4959" x1="15.8574" y1="12.4213" x2="15.8574" y2="28.0269" gradientUnits="userSpaceOnUse">
<stop stop-color="#EBB891"/>
<stop offset="1" stop-color="#DBA38A"/>
</linearGradient>
<linearGradient id="paint1_linear_20020_4959" x1="22.6699" y1="13.7144" x2="15.8574" y2="16.2194" gradientUnits="userSpaceOnUse">
<stop stop-color="#FFCDA4"/>
<stop offset="1" stop-color="#FFCDA4" stop-opacity="0"/>
</linearGradient>
<linearGradient id="paint2_linear_20020_4959" x1="6.04212" y1="20.7971" x2="15.5797" y2="22.0654" gradientUnits="userSpaceOnUse">
<stop stop-color="#CE9B7A"/>
<stop offset="1" stop-color="#CE9B7A" stop-opacity="0"/>
</linearGradient>
<radialGradient id="paint3_radial_20020_4959" cx="0" cy="0" r="1" gradientUnits="userSpaceOnUse" gradientTransform="translate(14.3454 26.3035) rotate(-90) scale(6.46491 8.5603)">
<stop stop-color="#B46D8D"/>
<stop offset="1" stop-color="#B46D8D" stop-opacity="0"/>
</radialGradient>
<radialGradient id="paint4_radial_20020_4959" cx="0" cy="0" r="1" gradientUnits="userSpaceOnUse" gradientTransform="translate(22.3624 24.6003) rotate(-91.2731) scale(2.15998 3.02294)">
<stop stop-color="#B87788"/>
<stop offset="1" stop-color="#B87788" stop-opacity="0"/>
</radialGradient>
<radialGradient id="paint5_radial_20020_4959" cx="0" cy="0" r="1" gradientUnits="userSpaceOnUse" gradientTransform="translate(9.32576 25.0002) rotate(-75.1546) scale(2.74701 3.38784)">
<stop stop-color="#B77780"/>
<stop offset="1" stop-color="#B37084" stop-opacity="0"/>
</radialGradient>
<radialGradient id="paint6_radial_20020_4959" cx="0" cy="0" r="1" gradientUnits="userSpaceOnUse" gradientTransform="translate(5.94066 21.2029) rotate(-10.5392) scale(6.65668 6.15039)">
<stop stop-color="#C58C7C"/>
<stop offset="1" stop-color="#C58C7C" stop-opacity="0"/>
</radialGradient>
<radialGradient id="paint7_radial_20020_4959" cx="0" cy="0" r="1" gradientUnits="userSpaceOnUse" gradientTransform="translate(10.9199 25.0129) rotate(-139.626) scale(2.11357 1.23196)">
<stop stop-color="#A37271"/>
<stop offset="1" stop-color="#8A4F6C"/>
</radialGradient>
<radialGradient id="paint8_radial_20020_4959" cx="0" cy="0" r="1" gradientUnits="userSpaceOnUse" gradientTransform="translate(9.48077 25.2144) rotate(-103.938) scale(2.20556 3.79711)">
<stop offset="0.652848" stop-color="#955F77" stop-opacity="0"/>
<stop offset="1" stop-color="#955F77"/>
</radialGradient>
<radialGradient id="paint9_radial_20020_4959" cx="0" cy="0" r="1" gradientUnits="userSpaceOnUse" gradientTransform="translate(21.1265 25.0129) rotate(-38.4355) scale(2.37167 1.3824)">
<stop stop-color="#A37271"/>
<stop offset="1" stop-color="#8A4F6C"/>
</radialGradient>
<radialGradient id="paint10_radial_20020_4959" cx="0" cy="0" r="1" gradientUnits="userSpaceOnUse" gradientTransform="translate(22.5762 25.2144) rotate(-103.938) scale(2.20556 3.79711)">
<stop offset="0.652848" stop-color="#955F77" stop-opacity="0"/>
<stop offset="1" stop-color="#955F77"/>
</radialGradient>
<linearGradient id="paint11_linear_20020_4959" x1="19.6382" y1="12.7307" x2="14.1085" y2="11.6653" gradientUnits="userSpaceOnUse">
<stop offset="0.192674" stop-color="#FFD2AC"/>
<stop offset="1" stop-color="#FFD2AC" stop-opacity="0"/>
</linearGradient>
<linearGradient id="paint12_linear_20020_4959" x1="24.7114" y1="19.7925" x2="20.155" y2="18.2579" gradientUnits="userSpaceOnUse">
<stop stop-color="#FFD2AC"/>
<stop offset="1" stop-color="#FFD2AC" stop-opacity="0"/>
</linearGradient>
</defs>
</svg>

<svg width="100%" height="100%" viewBox="0 0 32 32" xmlns="http://www.w3.org/2000/svg"><g filter="url(#a)"><path fill="url(#b)" d="M13.015 6.756a2.913 2.913 0 0 1 5.685 0l1.93 8.77c.227.821 1.018 1.374 1.837 1.43 2.133.149 3.806 1.793 3.806 3.899a3.81 3.81 0 0 1-3.972 3.81c-.97-.04-2.044.253-2.755.913a5.4 5.4 0 0 1-3.689 1.449 5.4 5.4 0 0 1-3.689-1.449c-.71-.66-1.785-.954-2.754-.914l-.16.003a3.81 3.81 0 0 1-3.813-3.812c0-2.106 1.674-3.75 3.807-3.899.819-.056 1.61-.609 1.836-1.43z"/></g><path fill="url(#c)" d="M13.015 6.756a2.913 2.913 0 0 1 5.685 0l1.93 8.77c.227.821 1.018 1.374 1.837 1.43 2.133.149 3.806 1.793 3.806 3.899a3.81 3.81 0 0 1-3.972 3.81c-.97-.04-2.044.253-2.755.913a5.4 5.4 0 0 1-3.689 1.449 5.4 5.4 0 0 1-3.689-1.449c-.71-.66-1.785-.954-2.754-.914l-.16.003a3.81 3.81 0 0 1-3.813-3.812c0-2.106 1.674-3.75 3.807-3.899.819-.056 1.61-.609 1.836-1.43z"/><path fill="url(#d)" d="M13.015 6.756a2.913 2.913 0 0 1 5.685 0l1.93 8.77c.227.821 1.018 1.374 1.837 1.43 2.133.149 3.806 1.793 3.806 3.899a3.81 3.81 0 0 1-3.972 3.81c-.97-.04-2.044.253-2.755.913a5.4 5.4 0 0 1-3.689 1.449 5.4 5.4 0 0 1-3.689-1.449c-.71-.66-1.785-.954-2.754-.914l-.16.003a3.81 3.81 0 0 1-3.813-3.812c0-2.106 1.674-3.75 3.807-3.899.819-.056 1.61-.609 1.836-1.43z"/><path fill="url(#e)" d="M13.015 6.756a2.913 2.913 0 0 1 5.685 0l1.93 8.77c.227.821 1.018 1.374 1.837 1.43 2.133.149 3.806 1.793 3.806 3.899a3.81 3.81 0 0 1-3.972 3.81c-.97-.04-2.044.253-2.755.913a5.4 5.4 0 0 1-3.689 1.449 5.4 5.4 0 0 1-3.689-1.449c-.71-.66-1.785-.954-2.754-.914l-.16.003a3.81 3.81 0 0 1-3.813-3.812c0-2.106 1.674-3.75 3.807-3.899.819-.056 1.61-.609 1.836-1.43z"/><path fill="url(#f)" d="M13.015 6.756a2.913 2.913 0 0 1 5.685 0l1.93 8.77c.227.821 1.018 1.374 1.837 1.43 2.133.149 3.806 1.793 3.806 3.899a3.81 3.81 0 0 1-3.972 3.81c-.97-.04-2.044.253-2.755.913a5.4 5.4 0 0 1-3.689 1.449 5.4 5.4 0 0 1-3.689-1.449c-.71-.66-1.785-.954-2.754-.914l-.16.003a3.81 3.81 0 0 1-3.813-3.812c0-2.106 1.674-3.75 3.807-3.899.819-.056 1.61-.609 1.836-1.43z"/><path fill="url(#g)" d="M13.015 6.756a2.913 2.913 0 0 1 5.685 0l1.93 8.77c.227.821 1.018 1.374 1.837 1.43 2.133.149 3.806 1.793 3.806 3.899a3.81 3.81 0 0 1-3.972 3.81c-.97-.04-2.044.253-2.755.913a5.4 5.4 0 0 1-3.689 1.449 5.4 5.4 0 0 1-3.689-1.449c-.71-.66-1.785-.954-2.754-.914l-.16.003a3.81 3.81 0 0 1-3.813-3.812c0-2.106 1.674-3.75 3.807-3.899.819-.056 1.61-.609 1.836-1.43z"/><path fill="url(#h)" d="M13.015 6.756a2.913 2.913 0 0 1 5.685 0l1.93 8.77c.227.821 1.018 1.374 1.837 1.43 2.133.149 3.806 1.793 3.806 3.899a3.81 3.81 0 0 1-3.972 3.81c-.97-.04-2.044.253-2.755.913a5.4 5.4 0 0 1-3.689 1.449 5.4 5.4 0 0 1-3.689-1.449c-.71-.66-1.785-.954-2.754-.914l-.16.003a3.81 3.81 0 0 1-3.813-3.812c0-2.106 1.674-3.75 3.807-3.899.819-.056 1.61-.609 1.836-1.43z"/><path fill="url(#i)" d="M11.296 25.013a4.3 4.3 0 0 0-1.882-.349 3.9 3.9 0 0 1-1.38-.196c-.404-.136-.52-.639-.177-.892a2.172 2.172 0 0 1 3.439 1.437"/><path fill="url(#j)" d="M11.296 25.013a4.3 4.3 0 0 0-1.882-.349 3.9 3.9 0 0 1-1.38-.196c-.404-.136-.52-.639-.177-.892a2.172 2.172 0 0 1 3.439 1.437"/><path fill="url(#k)" d="M23.858 23.576c.343.253.227.756-.178.892a3.8 3.8 0 0 1-1.379.196 4.3 4.3 0 0 0-1.882.349 2.172 2.172 0 0 1 3.439-1.437"/><path fill="url(#l)" d="M23.858 23.576c.343.253.227.756-.178.892a3.8 3.8 0 0 1-1.379.196 4.3 4.3 0 0 0-1.882.349 2.172 2.172 0 0 1 3.439-1.437"/><g filter="url(#m)"><path fill="url(#n)" d="m15.51 19.522.479-12.604a.78.78 0 0 1 1.542-.126l2.517 12.36a2.292 2.292 0 1 1-4.538.37"/></g><g filter="url(#o)"><path fill="url(#p)" d="M23.259 21.746h-4.34a.687.687 0 1 1 0-1.375h2.876c.645 0 1.137-.577 1.036-1.213-.107-.671.466-1.285 1.075-.985a2.7 2.7 0 0 1 1.312 1.407c.498 1.17-.687 2.166-1.96 2.166"/></g><g filter="url(#q)"><path fill="#E8B592" d="m10.721 18.697-.341 3.209c-.063.585-.627.992-1.13.686-.984-.6-1.737-1.73-1.549-3.003.164-1.107 1.226-1.64 2.143-1.818.537-.105.935.381.877.925"/></g><defs><radialGradient id="e" cx="0" cy="0" r="1" gradientTransform="matrix(0 -6.46491 8.5603 0 14.345 26.303)" gradientUnits="userSpaceOnUse"><stop stop-color="#B46D8D"/><stop offset="1" stop-color="#B46D8D" stop-opacity="0"/></radialGradient><radialGradient id="f" cx="0" cy="0" r="1" gradientTransform="rotate(-91.273 23.211 1.365)scale(2.15998 3.02294)" gradientUnits="userSpaceOnUse"><stop stop-color="#B87788"/><stop offset="1" stop-color="#B87788" stop-opacity="0"/></radialGradient><radialGradient id="g" cx="0" cy="0" r="1" gradientTransform="matrix(.70382 -2.65532 3.27476 .868 9.326 25)" gradientUnits="userSpaceOnUse"><stop stop-color="#B77780"/><stop offset="1" stop-color="#B37084" stop-opacity="0"/></radialGradient><radialGradient id="h" cx="0" cy="0" r="1" gradientTransform="matrix(6.54438 -1.21756 1.12496 6.04663 5.94 21.203)" gradientUnits="userSpaceOnUse"><stop stop-color="#C58C7C"/><stop offset="1" stop-color="#C58C7C" stop-opacity="0"/></radialGradient><radialGradient id="i" cx="0" cy="0" r="1" gradientTransform="rotate(-139.626 10.058 10.499)scale(2.11357 1.23196)" gradientUnits="userSpaceOnUse"><stop stop-color="#A37271"/><stop offset="1" stop-color="#8A4F6C"/></radialGradient><radialGradient id="j" cx="0" cy="0" r="1" gradientTransform="rotate(-103.938 14.601 8.9)scale(2.20556 3.79711)" gradientUnits="userSpaceOnUse"><stop offset=".653" stop-color="#955F77" stop-opacity="0"/><stop offset="1" stop-color="#955F77"/></radialGradient><radialGradient id="k" cx="0" cy="0" r="1" gradientTransform="rotate(-38.436 46.441 -17.797)scale(2.37167 1.3824)" gradientUnits="userSpaceOnUse"><stop stop-color="#A37271"/><stop offset="1" stop-color="#8A4F6C"/></radialGradient><radialGradient id="l" cx="0" cy="0" r="1" gradientTransform="rotate(-103.938 21.149 3.778)scale(2.20556 3.79711)" gradientUnits="userSpaceOnUse"><stop offset=".653" stop-color="#955F77" stop-opacity="0"/><stop offset="1" stop-color="#955F77"/></radialGradient><linearGradient id="b" x1="15.857" x2="15.857" y1="12.421" y2="28.027" gradientUnits="userSpaceOnUse"><stop stop-color="#EBB891"/><stop offset="1" stop-color="#DBA38A"/></linearGradient><linearGradient id="c" x1="22.67" x2="15.857" y1="13.714" y2="16.219" gradientUnits="userSpaceOnUse"><stop stop-color="#FFCDA4"/><stop offset="1" stop-color="#FFCDA4" stop-opacity="0"/></linearGradient><linearGradient id="d" x1="6.042" x2="15.58" y1="20.797" y2="22.065" gradientUnits="userSpaceOnUse"><stop stop-color="#CE9B7A"/><stop offset="1" stop-color="#CE9B7A" stop-opacity="0"/></linearGradient><linearGradient id="n" x1="19.638" x2="14.108" y1="12.731" y2="11.665" gradientUnits="userSpaceOnUse"><stop offset=".193" stop-color="#FFD2AC"/><stop offset="1" stop-color="#FFD2AC" stop-opacity="0"/></linearGradient><linearGradient id="p" x1="24.711" x2="20.155" y1="19.793" y2="18.258" gradientUnits="userSpaceOnUse"><stop stop-color="#FFD2AC"/><stop offset="1" stop-color="#FFD2AC" stop-opacity="0"/></linearGradient><filter id="a" width="21.082" height="22.797" x="5.441" y="4.48" color-interpolation-filters="sRGB" filterUnits="userSpaceOnUse"><feFlood flood-opacity="0" result="BackgroundImageFix"/><feBlend in="SourceGraphic" in2="BackgroundImageFix" result="shape"/><feColorMatrix in="SourceAlpha" result="hardAlpha" values="0 0 0 0 0 0 0 0 0 0 0 0 0 0 0 0 0 0 127 0"/><feOffset dx=".25" dy=".25"/><feGaussianBlur stdDeviation="1"/><feComposite in2="hardAlpha" k2="-1" k3="1" operator="arithmetic"/><feColorMatrix values="0 0 0 0 0.776471 0 0 0 0 0.592157 0 0 0 0 0.458824 0 0 0 1 0"/><feBlend in2="shape" result="effect1_innerShadow_20020_4959"/></filter><filter id="m" width="9.586" height="20.734" x="13.008" y="3.668" color-interpolation-filters="sRGB" filterUnits="userSpaceOnUse"><feFlood flood-opacity="0" result="BackgroundImageFix"/><feBlend in="SourceGraphic" in2="BackgroundImageFix" result="shape"/><feGaussianBlur result="effect1_foregroundBlur_20020_4959" stdDeviation="1.25"/></filter><filter id="o" width="10.102" height="6.651" x="16.732" y="16.595" color-interpolation-filters="sRGB" filterUnits="userSpaceOnUse"><feFlood flood-opacity="0" result="BackgroundImageFix"/><feBlend in="SourceGraphic" in2="BackgroundImageFix" result="shape"/><feGaussianBlur result="effect1_foregroundBlur_20020_4959" stdDeviation=".75"/></filter><filter id="q" width="7.055" height="8.94" x="5.672" y="15.757" color-interpolation-filters="sRGB" filterUnits="userSpaceOnUse"><feFlood flood-opacity="0" result="BackgroundImageFix"/><feBlend in="SourceGraphic" in2="BackgroundImageFix" result="shape"/><feGaussianBlur result="effect1_foregroundBlur_20020_4959" stdDeviation="1"/></filter></defs></svg>
